X: 07033
T: EUGENIA'S WALTZ
C: Bob McQuillen 20 Jan 89
B: Bob's Note Book 7 #33
%R: waltz
Z: 2021 John Chambers <jc:trillian.mit.edu>
M: 3/4
L: 1/4
K: A
cB \
| "A"A>FE | FAc | "Bm"B>cB | AFA | Bc>e | "A"fe"F#m"c | "D6"A>Bc | "E7"B2c/B/ |
| "A"A>FE | FAc | "Bm"B>cB | AFA | Bc>B | "E7"AFE | "D"FA>B | "A"A3 :|
|: c/d/ \
| "A"e>cA | "D"cAc | "A"ef>e | "D"c2A/c/ | "A"e>fe | cBc | "F#m"AF>E | F2A/c/ |
| "A"e>cA | "D"cAc | "A"ef>e | c2B | "D"A>c B/A/ | "E7"FEF | "D"A>BA | "A"A2 :|
%%begintext align
%% Down Philly way there lives
%% a lovely young woman named Eugenia (a.k.a "Mickey")
%% Brennan who is Johnny's sister, and she's learning
%% to play the fiddle from her big brother - It's a cute scene,
%% and I hear by the grapevine that she's already working on
%% this tune - good luck with it, Mickey!
%%endtext

%%sep 1 1 500

%%sep 1 1 500

